public/logos/J4.svg

<?xml version="1.0" encoding="UTF-8"?>
<svg xmlns="http://www.w3.org/2000/svg" xmlns:xlink="http://www.w3.org/1999/xlink" width="176pt" height="51.08pt" viewBox="0 0 176 51.08" version="1.1">
<defs>
<clipPath id="clip1">
  <path d="M 0 5 L 22 5 L 22 51.078125 L 0 51.078125 Z M 0 5 "/>
</clipPath>
</defs>
<g id="surface1">
<path style=" stroke:none;fill-rule:nonzero;fill:rgb(64.01062%,64.646912%,65.632629%);fill-opacity:1;" d="M 27.445312 29.996094 L 27.445312 31.113281 C 27.445312 32.710938 27.941406 34.007812 28.9375 35 C 29.929688 35.992188 31.457031 36.492188 33.515625 36.492188 C 34.261719 36.492188 34.925781 36.375 35.511719 36.144531 C 36.097656 35.914062 36.613281 35.621094 37.058594 35.265625 C 37.5 34.910156 37.890625 34.503906 38.230469 34.042969 C 38.566406 33.582031 38.875 33.136719 39.160156 32.710938 L 46.722656 32.710938 C 46.117188 34.273438 45.40625 35.640625 44.589844 36.808594 C 43.773438 37.980469 42.796875 38.964844 41.664062 39.765625 C 40.527344 40.5625 39.203125 41.160156 37.695312 41.550781 C 36.1875 41.9375 34.4375 42.132812 32.453125 42.132812 C 30.605469 42.132812 28.929688 41.886719 27.421875 41.390625 C 25.910156 40.894531 24.625 40.136719 23.558594 39.125 C 22.496094 38.113281 21.667969 36.863281 21.082031 35.371094 C 20.5 33.882812 20.207031 32.144531 20.207031 30.15625 C 20.207031 27.953125 20.558594 25.832031 21.269531 23.792969 C 21.980469 21.75 22.984375 19.941406 24.277344 18.363281 C 25.574219 16.78125 27.164062 15.523438 29.042969 14.582031 C 30.925781 13.640625 33.035156 13.171875 35.378906 13.171875 C 37.296875 13.171875 39.042969 13.417969 40.625 13.914062 C 42.203125 14.414062 43.554688 15.167969 44.671875 16.179688 C 45.789062 17.191406 46.65625 18.449219 47.28125 19.957031 C 47.902344 21.46875 48.210938 23.214844 48.210938 25.203125 C 48.210938 26.550781 48.070312 27.992188 47.785156 29.515625 L 27.5 29.515625 C 27.464844 29.695312 27.445312 29.855469 27.445312 29.996094 M 40.730469 22.621094 C 40.605469 21.929688 40.367188 21.300781 40.011719 20.730469 C 39.65625 20.164062 39.144531 19.710938 38.46875 19.375 C 37.792969 19.035156 36.90625 18.867188 35.804688 18.867188 C 34.742188 18.867188 33.800781 19.027344 32.984375 19.347656 C 32.167969 19.664062 31.457031 20.09375 30.855469 20.625 C 30.25 21.15625 29.746094 21.777344 29.335938 22.488281 C 28.929688 23.199219 28.582031 23.945312 28.296875 24.722656 L 40.917969 24.722656 C 40.917969 24.015625 40.855469 23.3125 40.730469 22.621094 "/>
<path style=" stroke:none;fill-rule:nonzero;fill:rgb(64.01062%,64.646912%,65.632629%);fill-opacity:1;" d="M 68.082031 13.914062 L 66.910156 18.972656 L 61.53125 18.972656 L 58.710938 32.65625 C 58.636719 32.941406 58.585938 33.199219 58.550781 33.429688 C 58.515625 33.660156 58.496094 33.828125 58.496094 33.933594 C 58.496094 34.433594 58.578125 34.8125 58.734375 35.078125 C 58.894531 35.347656 59.097656 35.550781 59.347656 35.691406 C 59.597656 35.835938 59.871094 35.914062 60.171875 35.933594 C 60.472656 35.949219 60.769531 35.957031 61.050781 35.957031 C 61.976562 35.957031 62.878906 35.90625 63.769531 35.796875 L 62.488281 41.601562 C 61.707031 41.671875 60.925781 41.734375 60.148438 41.789062 C 59.367188 41.84375 58.566406 41.867188 57.75 41.867188 C 56.863281 41.867188 55.984375 41.789062 55.113281 41.628906 C 54.246094 41.46875 53.464844 41.183594 52.773438 40.777344 C 52.082031 40.371094 51.53125 39.808594 51.121094 39.101562 C 50.714844 38.390625 50.527344 37.46875 50.5625 36.332031 C 50.5625 35.976562 50.597656 35.578125 50.667969 35.132812 C 50.738281 34.691406 50.828125 34.21875 50.933594 33.722656 L 54.023438 18.972656 L 49.074219 18.972656 L 50.242188 13.914062 L 55.089844 13.914062 L 56.792969 5.554688 L 64.351562 5.554688 L 62.648438 13.914062 L 68.082031 13.914062 "/>
<path style=" stroke:none;fill-rule:nonzero;fill:rgb(14.657593%,29.711914%,63.807678%);fill-opacity:1;" d="M 88.445312 13.914062 L 87.273438 18.972656 L 81.894531 18.972656 L 79.070312 32.65625 C 79 32.941406 78.949219 33.199219 78.914062 33.429688 C 78.878906 33.660156 78.859375 33.828125 78.859375 33.933594 C 78.859375 34.433594 78.9375 34.8125 79.097656 35.078125 C 79.257812 35.347656 79.460938 35.550781 79.710938 35.691406 C 79.960938 35.835938 80.234375 35.914062 80.535156 35.933594 C 80.835938 35.949219 81.128906 35.957031 81.414062 35.957031 C 82.339844 35.957031 83.242188 35.90625 84.128906 35.796875 L 82.851562 41.601562 C 82.070312 41.671875 81.289062 41.734375 80.507812 41.789062 C 79.726562 41.84375 78.929688 41.867188 78.113281 41.867188 C 77.226562 41.867188 76.347656 41.789062 75.476562 41.628906 C 74.609375 41.46875 73.828125 41.183594 73.136719 40.777344 C 72.441406 40.371094 71.894531 39.808594 71.484375 39.101562 C 71.078125 38.390625 70.890625 37.46875 70.925781 36.332031 C 70.925781 35.976562 70.960938 35.578125 71.03125 35.132812 C 71.101562 34.691406 71.191406 34.21875 71.296875 33.722656 L 74.386719 18.972656 L 69.433594 18.972656 L 70.605469 13.914062 L 75.453125 13.914062 L 77.15625 5.554688 L 84.714844 5.554688 L 83.011719 13.914062 L 88.445312 13.914062 "/>
<path style=" stroke:none;fill-rule:nonzero;fill:rgb(14.657593%,29.711914%,63.807678%);fill-opacity:1;" d="M 100.3125 13.914062 L 94.457031 41.441406 L 86.898438 41.441406 L 92.699219 13.914062 L 100.3125 13.914062 "/>
<path style=" stroke:none;fill-rule:nonzero;fill:rgb(14.657593%,29.711914%,63.807678%);fill-opacity:1;" d="M 113.132812 13.914062 L 112.28125 17.800781 L 112.386719 17.800781 C 113.523438 16.203125 114.90625 15.035156 116.539062 14.289062 C 118.175781 13.542969 120.003906 13.171875 122.023438 13.171875 C 123.730469 13.171875 125.183594 13.542969 126.390625 14.289062 C 127.597656 15.035156 128.359375 16.257812 128.679688 17.960938 C 129.144531 17.253906 129.726562 16.605469 130.4375 16.019531 C 131.148438 15.433594 131.910156 14.925781 132.726562 14.5 C 133.542969 14.074219 134.40625 13.746094 135.308594 13.515625 C 136.214844 13.285156 137.109375 13.171875 137.996094 13.171875 C 139.0625 13.171875 140.101562 13.3125 141.113281 13.597656 C 142.125 13.878906 143.019531 14.304688 143.804688 14.875 C 144.582031 15.441406 145.203125 16.167969 145.664062 17.058594 C 146.128906 17.945312 146.359375 18.972656 146.359375 20.144531 C 146.359375 20.996094 146.269531 21.859375 146.09375 22.726562 C 145.914062 23.597656 145.738281 24.441406 145.558594 25.257812 L 142.152344 41.441406 L 134.589844 41.441406 L 138.210938 24.03125 C 138.355469 23.324219 138.425781 22.664062 138.425781 22.0625 C 138.425781 21.246094 138.113281 20.554688 137.492188 19.984375 C 136.871094 19.417969 136.082031 19.132812 135.125 19.132812 C 134.128906 19.132812 133.234375 19.371094 132.433594 19.851562 C 131.636719 20.332031 130.945312 20.9375 130.359375 21.664062 C 129.773438 22.390625 129.285156 23.199219 128.894531 24.085938 C 128.503906 24.972656 128.21875 25.84375 128.042969 26.695312 L 124.953125 41.441406 L 117.339844 41.441406 L 120.960938 24.03125 C 121.101562 23.324219 121.171875 22.664062 121.171875 22.0625 C 121.171875 21.246094 120.863281 20.554688 120.242188 19.984375 C 119.621094 19.417969 118.832031 19.132812 117.871094 19.132812 C 116.878906 19.132812 115.980469 19.371094 115.183594 19.851562 C 114.386719 20.332031 113.691406 20.9375 113.105469 21.664062 C 112.519531 22.390625 112.03125 23.199219 111.644531 24.085938 C 111.253906 24.972656 110.96875 25.84375 110.789062 26.695312 L 107.703125 41.441406 L 100.195312 41.441406 L 105.894531 13.914062 L 113.132812 13.914062 "/>
<path style=" stroke:none;fill-rule:nonzero;fill:rgb(14.657593%,29.711914%,63.807678%);fill-opacity:1;" d="M 155.234375 29.996094 L 155.234375 31.113281 C 155.234375 32.710938 155.730469 34.007812 156.726562 35 C 157.71875 35.992188 159.246094 36.492188 161.304688 36.492188 C 162.050781 36.492188 162.714844 36.375 163.300781 36.144531 C 163.886719 35.914062 164.402344 35.621094 164.847656 35.265625 C 165.289062 34.910156 165.679688 34.503906 166.015625 34.042969 C 166.355469 33.582031 166.664062 33.136719 166.949219 32.710938 L 174.507812 32.710938 C 173.90625 34.273438 173.195312 35.640625 172.378906 36.808594 C 171.5625 37.980469 170.585938 38.964844 169.449219 39.765625 C 168.3125 40.5625 166.992188 41.160156 165.484375 41.550781 C 163.976562 41.9375 162.226562 42.132812 160.238281 42.132812 C 158.394531 42.132812 156.714844 41.886719 155.207031 41.390625 C 153.699219 40.894531 152.414062 40.136719 151.347656 39.125 C 150.28125 38.113281 149.457031 36.863281 148.871094 35.371094 C 148.285156 33.882812 147.992188 32.144531 147.992188 30.15625 C 147.992188 27.953125 148.347656 25.832031 149.058594 23.792969 C 149.769531 21.75 150.769531 19.941406 152.066406 18.363281 C 153.363281 16.78125 154.949219 15.523438 156.832031 14.582031 C 158.714844 13.640625 160.824219 13.171875 163.167969 13.171875 C 165.085938 13.171875 166.832031 13.417969 168.414062 13.914062 C 169.992188 14.414062 171.339844 15.167969 172.460938 16.179688 C 173.578125 17.191406 174.445312 18.449219 175.066406 19.957031 C 175.6875 21.46875 176 23.214844 176 25.203125 C 176 26.550781 175.859375 27.992188 175.574219 29.515625 L 155.289062 29.515625 C 155.253906 29.695312 155.234375 29.855469 155.234375 29.996094 M 168.519531 22.621094 C 168.394531 21.929688 168.152344 21.300781 167.800781 20.730469 C 167.445312 20.164062 166.929688 19.710938 166.257812 19.375 C 165.582031 19.035156 164.695312 18.867188 163.59375 18.867188 C 162.527344 18.867188 161.589844 19.027344 160.773438 19.347656 C 159.957031 19.664062 159.246094 20.09375 158.644531 20.625 C 158.039062 21.15625 157.53125 21.777344 157.125 22.488281 C 156.714844 23.199219 156.371094 23.945312 156.085938 24.722656 L 168.703125 24.722656 C 168.703125 24.015625 168.644531 23.3125 168.519531 22.621094 "/>
<g clip-path="url(#clip1)" clip-rule="nonzero">
<path style=" stroke:none;fill-rule:nonzero;fill:rgb(64.01062%,64.646912%,65.632629%);fill-opacity:1;" d="M 14.003906 5.554688 L 6.867188 39.953125 C 6.761719 40.308594 6.65625 40.757812 6.546875 41.308594 C 6.441406 41.859375 6.28125 42.402344 6.070312 42.933594 C 5.855469 43.464844 5.589844 43.917969 5.269531 44.289062 C 4.949219 44.664062 4.523438 44.851562 3.992188 44.851562 C 3.53125 44.851562 3.078125 44.839844 2.636719 44.824219 C 2.191406 44.804688 1.738281 44.777344 1.277344 44.742188 L 0 50.8125 C 0.605469 50.847656 1.214844 50.902344 1.835938 50.972656 C 2.457031 51.042969 3.070312 51.078125 3.671875 51.078125 C 5.378906 51.078125 6.796875 50.902344 7.933594 50.546875 C 9.070312 50.191406 10.027344 49.660156 10.808594 48.949219 C 11.589844 48.238281 12.210938 47.335938 12.671875 46.234375 C 13.132812 45.132812 13.523438 43.855469 13.84375 42.402344 L 21.5625 5.554688 L 14.003906 5.554688 "/>
</g>
<path style=" stroke:none;fill-rule:nonzero;fill:rgb(96.931458%,58.432007%,6.135559%);fill-opacity:1;" d="M 165.242188 5.113281 C 165.242188 5.113281 100.414062 10.226562 97.59375 10.226562 C 94.769531 10.226562 92.480469 7.9375 92.480469 5.113281 C 92.480469 2.292969 94.769531 0.00390625 97.59375 0.00390625 C 100.414062 0.00390625 165.242188 5.113281 165.242188 5.113281 "/>
</g>
</svg>

<svg xmlns="http://www.w3.org/2000/svg" width="176pt" height="68.107" viewBox="0 0 176 51.08"><defs><clipPath id="a"><path d="M0 5h22v46.078H0Zm0 0"/></clipPath></defs><path d="M27.445 29.996v1.117q-.001 2.398 1.492 3.887c.993.992 2.52 1.492 4.579 1.492q1.118-.001 1.996-.347a6 6 0 0 0 1.547-.88 6.6 6.6 0 0 0 1.171-1.222q.503-.692.93-1.332h7.563q-.909 2.344-2.133 4.098a12 12 0 0 1-2.926 2.957q-1.706 1.197-3.969 1.785c-1.508.386-3.258.582-5.242.582q-2.77.001-5.031-.742c-1.512-.496-2.797-1.254-3.863-2.266q-1.596-1.517-2.477-3.754-.874-2.232-.875-5.215-.002-3.304 1.063-6.363 1.066-3.064 3.007-5.43 1.947-2.371 4.766-3.781c1.883-.941 3.992-1.41 6.336-1.41q2.875-.001 5.246.742c1.578.5 2.93 1.254 4.047 2.266 1.117 1.011 1.984 2.27 2.61 3.777.62 1.512.929 3.258.929 5.246 0 1.348-.14 2.79-.426 4.313H27.5a2.6 2.6 0 0 0-.055.48m13.285-7.375a5.3 5.3 0 0 0-.718-1.89c-.356-.567-.867-1.02-1.543-1.356q-1.013-.509-2.664-.508-1.595 0-2.82.48a7 7 0 0 0-2.13 1.278 7.3 7.3 0 0 0-1.52 1.863q-.609 1.067-1.038 2.235h12.621q0-1.062-.188-2.102M68.082 13.914l-1.172 5.059h-5.379l-2.82 13.683a8 8 0 0 0-.16.774 4 4 0 0 0-.055.504c0 .5.082.879.238 1.144q.24.404.614.613c.25.145.523.223.824.243.3.015.598.023.879.023.926 0 1.828-.05 2.719-.16l-1.282 5.805q-1.172.105-2.34.187c-.78.055-1.582.078-2.398.078a14.6 14.6 0 0 1-2.637-.238 7.1 7.1 0 0 1-2.34-.852 4.56 4.56 0 0 1-1.652-1.675q-.61-1.065-.559-2.77 0-.532.106-1.2c.07-.44.16-.913.266-1.41l3.09-14.75h-4.95l1.168-5.058h4.848l1.703-8.36h7.559l-1.704 8.36z" style="stroke:none;fill-rule:nonzero;fill:#a3a5a7;fill-opacity:1"/><path d="m88.445 13.914-1.172 5.059h-5.378L79.07 32.656q-.103.427-.156.774a4 4 0 0 0-.055.504q0 .748.239 1.144.239.404.613.613c.25.145.523.223.824.243q.45.023.88.023c.925 0 1.827-.05 2.714-.16l-1.277 5.805q-1.173.105-2.344.187c-.781.055-1.578.078-2.395.078a14.6 14.6 0 0 1-2.636-.238 7.1 7.1 0 0 1-2.34-.852 4.53 4.53 0 0 1-1.653-1.675q-.61-1.065-.558-2.77 0-.532.105-1.2c.07-.44.16-.913.266-1.41l3.09-14.75h-4.953l1.171-5.058h4.848l1.703-8.36h7.559l-1.703 8.36zM100.313 13.914l-5.856 27.527h-7.559L92.7 13.914zM113.133 13.914l-.852 3.887h.106q1.704-2.395 4.152-3.512 2.456-1.118 5.484-1.117c1.707 0 3.16.371 4.368 1.117q1.809 1.118 2.289 3.672a8.7 8.7 0 0 1 1.757-1.941 13 13 0 0 1 2.29-1.52c.816-.426 1.68-.754 2.582-.984q1.358-.344 2.687-.344 1.6-.002 3.117.426a8.3 8.3 0 0 1 2.692 1.277 6.16 6.16 0 0 1 1.86 2.184q.695 1.329.694 3.086-.001 1.278-.265 2.582-.268 1.305-.535 2.53l-3.407 16.184h-7.562l3.62-17.41a10 10 0 0 0 .216-1.968q-.001-1.224-.934-2.079-.93-.85-2.367-.851c-.996 0-1.89.238-2.691.719a7.9 7.9 0 0 0-2.075 1.812 10.7 10.7 0 0 0-1.464 2.422q-.587 1.331-.852 2.61l-3.09 14.745h-7.613l3.62-17.41c.142-.707.212-1.367.212-1.968q0-1.224-.93-2.079-.93-.85-2.37-.851c-.993 0-1.892.238-2.688.719a7.9 7.9 0 0 0-2.079 1.812 10.6 10.6 0 0 0-1.46 2.422 13.3 13.3 0 0 0-.856 2.61l-3.086 14.745h-7.508l5.7-27.527zM155.234 29.996v1.117q-.001 2.398 1.493 3.887c.992.992 2.52 1.492 4.578 1.492q1.118-.001 1.996-.347a6 6 0 0 0 1.547-.88 6.4 6.4 0 0 0 1.168-1.222c.34-.461.648-.906.933-1.332h7.559q-.904 2.344-2.13 4.098a11.9 11.9 0 0 1-2.929 2.957q-1.704 1.197-3.965 1.785-2.262.58-5.246.582c-1.843 0-3.523-.246-5.031-.742s-2.793-1.254-3.86-2.266q-1.598-1.517-2.476-3.754-.879-2.232-.879-5.215 0-3.304 1.067-6.363 1.063-3.064 3.007-5.43 1.944-2.371 4.766-3.781c1.883-.941 3.992-1.41 6.336-1.41 1.918 0 3.664.246 5.246.742q2.366.749 4.047 2.266 1.675 1.517 2.605 3.777c.621 1.512.934 3.258.934 5.246 0 1.348-.14 2.79-.426 4.313H155.29a2.6 2.6 0 0 0-.055.48m13.286-7.375a5.4 5.4 0 0 0-.72-1.89q-.533-.851-1.542-1.356-1.013-.509-2.664-.508c-1.067 0-2.004.16-2.82.48a7 7 0 0 0-2.13 1.278 7.2 7.2 0 0 0-1.519 1.863c-.41.711-.754 1.457-1.04 2.235h12.618c0-.707-.058-1.41-.183-2.102" style="stroke:none;fill-rule:nonzero;fill:#254ca3;fill-opacity:1"/><g clip-path="url(#a)"><path d="M14.004 5.555 6.867 39.953c-.105.356-.21.805-.32 1.356a9 9 0 0 1-.477 1.625 4.8 4.8 0 0 1-.8 1.355q-.48.563-1.278.563c-.46 0-.914-.012-1.355-.028q-.669-.03-1.36-.082L0 50.812q.906.055 1.836.16.932.106 1.836.106 2.558 0 4.262-.531 1.703-.533 2.875-1.598 1.17-1.063 1.863-2.715.69-1.652 1.172-3.832l7.719-36.847z" style="stroke:none;fill-rule:nonzero;fill:#a3a5a7;fill-opacity:1"/></g><path d="M165.242 5.113s-64.828 5.114-67.648 5.114a5.112 5.112 0 1 1 0-10.223c2.82 0 67.648 5.11 67.648 5.11" style="stroke:none;fill-rule:nonzero;fill:#f79510;fill-opacity:1"/></svg>
